azure-icons/command-1033-Support.svg

<svg xmlns="http://www.w3.org/2000/svg" viewBox="0 0 13 16"><path d="M8.1 10.4A4.1 4.1 0 0010 7a4 4 0 00-8 0 4.1 4.1 0 001.9 3.4A5.9 5.9 0 000 16h1a5 5 0 015-5 5 5 0 015 5h1a5.9 5.9 0 00-3.9-5.6zM3 7a2.9 2.9 0 013-3 2.9 2.9 0 013 3 2.9 2.9 0 01-3 3 2.9 2.9 0 01-3-3z"/><path d="M13 7a6.8 6.8 0 00-7-7 6.2 6.2 0 00-6 5.3.5.5 0 00.5.5.5.5 0 00.5-.2A5.4 5.4 0 016 1a5.9 5.9 0 016 6v1H7.5a.5.5 0 000 1h5a.5.5 0 00.5-.5z"/></svg>

<svg xmlns="http://www.w3.org/2000/svg" viewBox="0 0 13 16"><title>Asset 73</title><path d="M8.1,10.4A4.1,4.1,0,0,0,10,7,4,4,0,0,0,2,7a4.1,4.1,0,0,0,1.9,3.4A5.9,5.9,0,0,0,0,16H1a5,5,0,0,1,5-5,5,5,0,0,1,5,5h1A5.9,5.9,0,0,0,8.1,10.4ZM3,7A2.9,2.9,0,0,1,6,4,2.9,2.9,0,0,1,9,7a2.9,2.9,0,0,1-3,3A2.9,2.9,0,0,1,3,7Z"/><path d="M13,7A6.8,6.8,0,0,0,6,0,6.2,6.2,0,0,0,0,5.3H0a.5.5,0,0,0,.5.5A.5.5,0,0,0,1,5.6H1A5.4,5.4,0,0,1,6,1a5.9,5.9,0,0,1,6,6V8H7.5a.5.5,0,0,0,0,1h5a.5.5,0,0,0,.5-.5h0Z"/></svg>
